svg/emoji_u1f9f8.svg

<svg width="128" height="128" viewBox="0 0 128 128" fill="none" xmlns="http://www.w3.org/2000/svg">
<path d="M113.95 98.6902C111.29 93.7102 106.28 92.5001 100.8 93.6301C100.7 93.6502 100.58 93.6802 100.46 93.7202C102.03 90.8902 103.24 88.1202 103.43 83.0102C103.88 70.4302 98.69 64.2502 93.31 59.6802C82.16 50.2102 49.93 53.3302 49.43 53.3502C45.29 53.5202 39.52 56.0502 36.39 58.8102C29.49 64.8202 24.17 73.2901 23.78 82.6301C23.57 86.0102 24.16 90.0202 25.77 93.2602C21.44 92.7202 16.86 94.2102 14 99.3102C11.68 103.44 12.34 108.5 14.86 113.16C18.27 119.48 26.02 125.45 33.69 123.68C41.47 121.89 48.22 114.18 55.09 110.11C55.58 109.82 56.16 109.72 56.73 109.78C61.01 110.27 67.03 110.27 70.81 109.86C71.6 109.78 72.38 110.04 72.94 110.59C73.65 111.29 74.36 111.95 74.62 112.19C78.93 116.16 83.86 120.45 89.34 122.64C98.62 126.34 107.83 122.2 112.82 113.34C115.44 108.68 116.59 103.62 113.95 98.6902Z" fill="#A65F3E" style="fill:#A65F3E;fill:color(display-p3 0.6510 0.3725 0.2431);fill-opacity:1;"/>
<path d="M84.8599 105.17C84.4199 105.17 83.9699 105.13 83.5199 105.05C79.4699 104.3 77.0599 100.27 76.7699 96.67C76.4799 93.03 77.8799 89.58 79.2799 86.69C79.5299 86.17 82.1299 81.4 82.8299 78.16C83.8799 73.27 82.9999 68.81 82.6899 66.82C82.3799 64.82 83.8999 65.16 84.5599 66.59C86.1799 70.1 86.4699 75.01 85.7399 78.76C85.0699 82.19 82.1999 87.47 81.9499 87.99C80.7199 90.53 79.4899 93.51 79.7199 96.44C79.9099 98.85 81.4899 101.66 84.0499 102.13C86.8199 102.64 89.0399 101.64 91.3799 99.5L93.8999 100.46C92.0499 102.16 88.7399 105.17 84.8599 105.17Z" fill="#703B26" style="fill:#703B26;fill:color(display-p3 0.4392 0.2314 0.1490);fill-opacity:1;"/>
<path d="M45.9499 81.4501C45.3499 78.2001 44.9299 74.0901 46.9699 71.1801L45.4799 68.3101C41.6999 72.1401 42.3199 78.1601 43.0299 81.9801C43.1199 82.4901 44.5899 90.0101 43.7799 92.9701C42.8499 96.3701 39.8299 99.1001 36.3899 99.8001C34.5299 96.8301 31.7399 94.7001 28.6599 93.4601C25.6599 92.2501 21.3499 92.5801 18.8999 94.3701C21.5399 93.6401 24.6199 93.8101 27.1999 95.0401C30.7899 96.7401 33.0099 99.0701 35.0399 104.02C35.7099 105.65 36.2399 108.25 37.7899 107.8C38.6799 107.55 39.3799 106.65 39.0399 105.22C38.6799 103.71 38.1399 102.68 38.1399 102.68C38.1399 102.68 43.6199 101.74 46.6499 93.7501C48.1999 89.6501 46.0499 81.9501 45.9499 81.4501Z" fill="#703B26" style="fill:#703B26;fill:color(display-p3 0.4392 0.2314 0.1490);fill-opacity:1;"/>
<path d="M91.4401 107.55C91.1501 108.09 90.7401 108.51 90.1501 108.5C89.2401 108.49 88.6601 107.42 88.6501 106.5C88.6101 99.2599 96.54 92.6499 103.84 93.2399C98.13 94.4599 93.9101 99.1199 91.8701 106.49C91.7701 106.84 91.6201 107.21 91.4401 107.55Z" fill="#703B26" style="fill:#703B26;fill:color(display-p3 0.4392 0.2314 0.1490);fill-opacity:1;"/>
<path d="M100.19 19.5C99.9399 15.22 97.0899 11.4 93.0599 9.95C89.7899 8.78 86.5199 9.19 83.8899 10.67C82.6899 11.34 81.25 11.45 80.0099 10.83C78.09 9.87 74.7599 8.57 70.0199 7.97C65.2999 7.37 61.6499 7.89 59.4599 8.41C58.0399 8.75 56.5799 8.25 55.5499 7.21C53.5699 5.24 50.8399 4 47.7299 4C42.5999 4 38.0499 7.74 37.0299 12.77C36.3899 15.9 37.1399 18.94 38.8199 21.3C40.2799 23.37 40.5699 26.08 39.6299 28.44C38.6799 30.82 36.8699 36.05 36.9099 38.95C37.0599 51.6 48.5699 58.16 63.7899 60.09C79.0099 62.02 92.6199 57.27 95.1799 44.18C95.7599 41.22 95.5999 37.35 95.0899 34.45C94.6699 32.06 95.4599 29.59 97.1499 27.84C99.1699 25.74 100.39 22.81 100.19 19.5Z" fill="#A65F3E" style="fill:#A65F3E;fill:color(display-p3 0.6510 0.3725 0.2431);fill-opacity:1;"/>
<path d="M41.35 15.6801C41.76 12.4901 44.53 10.2201 47.56 10.6001C48.71 10.7501 52.16 12.1001 50.98 13.9001C50.76 14.2301 50.43 14.4601 50.11 14.6901C47.96 16.2501 46.03 18.1501 44.43 20.3201C44.14 20.7201 43.7 21.1701 43.27 20.9801C41.75 20.3301 41.17 17.1401 41.35 15.6801Z" fill="#874D36" style="fill:#874D36;fill:color(display-p3 0.5294 0.3020 0.2118);fill-opacity:1;"/>
<path d="M95.2898 22.5301C95.6998 19.3401 93.5698 16.4401 90.5498 16.0601C89.3998 15.9101 85.7198 16.3601 86.4198 18.4001C86.5498 18.7801 86.8098 19.0801 87.0598 19.3901C88.7498 21.4301 90.1398 23.7601 91.1498 26.2701C91.3298 26.7301 91.6398 27.2801 92.1098 27.2001C93.7398 26.9401 95.0998 24.0001 95.2898 22.5301Z" fill="#874D36" style="fill:#874D36;fill:color(display-p3 0.5294 0.3020 0.2118);fill-opacity:1;"/>
<path opacity="0.7" d="M61.95 33.1702C59 36.5602 56.78 38.4802 54.69 41.4702C51.14 46.5502 53.61 55.3802 63.67 56.6902C70.68 57.6002 76.7199 54.2802 76.8399 47.5702C76.9199 43.3202 73.17 37.6502 71.23 33.9902C68.81 29.4502 65.02 29.6402 61.95 33.1702Z" fill="#F29657" style="fill:#F29657;fill:color(display-p3 0.9490 0.5882 0.3412);fill-opacity:1;"/>
<path opacity="0.55" d="M57.0136 32.0616C57.3858 29.4481 55.888 27.0731 53.6681 26.757C51.4483 26.4408 49.347 28.3032 48.9748 30.9167C48.6025 33.5302 50.1003 35.9052 52.3202 36.2214C54.54 36.5375 56.6413 34.6752 57.0136 32.0616Z" fill="black" style="fill:black;fill-opacity:1;"/>
<path opacity="0.55" d="M84.5971 35.568C84.9693 32.9545 83.4715 30.5795 81.2516 30.2633C79.0318 29.9472 76.9305 31.8096 76.5583 34.4231C76.186 37.0366 77.6838 39.4116 79.9037 39.7277C82.1235 40.0439 84.2248 38.1815 84.5971 35.568Z" fill="black" style="fill:black;fill-opacity:1;"/>
<path opacity="0.55" d="M57.5898 47.2202C59.4898 52.8302 68.8498 54.0502 72.1998 49.0902" stroke="black" style="stroke:black;stroke-opacity:1;" stroke-width="2.4465" stroke-miterlimit="10" stroke-linecap="round"/>
<path opacity="0.55" d="M67.7799 47.83C65.3699 48.36 62.9199 47.94 61.3099 45.92C60.0999 44.41 58.8499 41.88 60.5699 40.09C63.0099 37.59 69.0799 38.34 71.2799 40.82C72.5299 42.93 70.0599 47.35 67.7799 47.83Z" fill="black" style="fill:black;fill-opacity:1;"/>
<path opacity="0.7" d="M16.2001 106.55C16.2301 104.72 17.6101 102.06 19.3301 101.42C23.4301 99.8702 27.8901 101.74 30.3601 107.35C32.4001 111.99 32.6001 116.86 31.7301 118.17C30.4401 120.1 28.5601 119.79 27.2601 119.56C24.8901 119.14 22.8301 117.71 20.9701 116.17C19.0801 114.6 16.1201 111.42 16.2001 106.55Z" fill="#F29657" style="fill:#F29657;fill:color(display-p3 0.9490 0.5882 0.3412);fill-opacity:1;"/>
<path opacity="0.7" d="M111.76 106.47C111.7 104.64 110.28 102.01 108.56 101.38C104.44 99.8898 100 101.82 97.6201 107.47C95.6501 112.14 95.8701 116.43 96.1401 117.34C96.9801 120.15 99.6101 119.88 100.9 119.63C103.26 119.17 105.3 117.71 107.14 116.15C109.01 114.57 111.91 111.35 111.76 106.47Z" fill="#F29657" style="fill:#F29657;fill:color(display-p3 0.9490 0.5882 0.3412);fill-opacity:1;"/>
</svg>

<?xml version="1.0" encoding="utf-8"?>
<!-- Generator: Adobe Illustrator 25.2.3, SVG Export Plug-In . SVG Version: 6.00 Build 0)  -->
<svg version="1.1" id="Layer_5" xmlns="http://www.w3.org/2000/svg" xmlns:xlink="http://www.w3.org/1999/xlink" x="0px" y="0px"
	 viewBox="0 0 128 128" style="enable-background:new 0 0 128 128;" xml:space="preserve">
<g>
	<path style="fill:#A65F3E;" d="M113.95,98.69c-2.66-4.98-7.67-6.19-13.15-5.06c-0.1,0.02-0.22,0.05-0.34,0.09
		c1.57-2.83,2.78-5.6,2.97-10.71c0.45-12.58-4.74-18.76-10.12-23.33c-11.15-9.47-43.38-6.35-43.88-6.33
		c-4.14,0.17-9.91,2.7-13.04,5.46c-6.9,6.01-12.22,14.48-12.61,23.82c-0.21,3.38,0.38,7.39,1.99,10.63
		c-4.33-0.54-8.91,0.95-11.77,6.05c-2.32,4.13-1.66,9.19,0.86,13.85c3.41,6.32,11.16,12.29,18.83,10.52
		c7.78-1.79,14.53-9.5,21.4-13.57c0.49-0.29,1.07-0.39,1.64-0.33c4.28,0.49,10.3,0.49,14.08,0.08c0.79-0.08,1.57,0.18,2.13,0.73
		c0.71,0.7,1.42,1.36,1.68,1.6c4.31,3.97,9.24,8.26,14.72,10.45c9.28,3.7,18.49-0.44,23.48-9.3
		C115.44,108.68,116.59,103.62,113.95,98.69z"/>
	<g>
		<path style="fill:#703B26;" d="M84.86,105.17c-0.44,0-0.89-0.04-1.34-0.12c-4.05-0.75-6.46-4.78-6.75-8.38
			c-0.29-3.64,1.11-7.09,2.51-9.98c0.25-0.52,2.85-5.29,3.55-8.53c1.05-4.89,0.17-9.35-0.14-11.34c-0.31-2,1.21-1.66,1.87-0.23
			c1.62,3.51,1.91,8.42,1.18,12.17c-0.67,3.43-3.54,8.71-3.79,9.23c-1.23,2.54-2.46,5.52-2.23,8.45c0.19,2.41,1.77,5.22,4.33,5.69
			c2.77,0.51,4.99-0.49,7.33-2.63l2.52,0.96C92.05,102.16,88.74,105.17,84.86,105.17z"/>
	</g>
	<path style="fill:#703B26;" d="M45.95,81.45c-0.6-3.25-1.02-7.36,1.02-10.27l-1.49-2.87c-3.78,3.83-3.16,9.85-2.45,13.67
		c0.09,0.51,1.56,8.03,0.75,10.99c-0.93,3.4-3.95,6.13-7.39,6.83c-1.86-2.97-4.65-5.1-7.73-6.34c-3-1.21-7.31-0.88-9.76,0.91
		c2.64-0.73,5.72-0.56,8.3,0.67c3.59,1.7,5.81,4.03,7.84,8.98c0.67,1.63,1.2,4.23,2.75,3.78c0.89-0.25,1.59-1.15,1.25-2.58
		c-0.36-1.51-0.9-2.54-0.9-2.54s5.48-0.94,8.51-8.93C48.2,89.65,46.05,81.95,45.95,81.45z"/>
	<g>
		<path style="fill:#703B26;" d="M91.44,107.55c-0.29,0.54-0.7,0.96-1.29,0.95c-0.91-0.01-1.49-1.08-1.5-2
			c-0.04-7.24,7.89-13.85,15.19-13.26c-5.71,1.22-9.93,5.88-11.97,13.25C91.77,106.84,91.62,107.21,91.44,107.55z"/>
	</g>
	<g>
		<path style="fill:#703B26;" d="M54.02,80.33l-2.2-2.39c3.6-3.43,8.51-8.15,9.36-12.41l2.91,0.58c-0.95,4.78-5.02,10.55-8.67,14.25
			C55.03,80.76,54.39,80.74,54.02,80.33z"/>
	</g>
	<path style="fill:#FFCA28;" d="M71.39,65.14c6.05-1.32,10.47-5.03,10.75-9.66l-32.92-1.99c-0.21,3.53,2.03,6.82,5.7,9.08
		c-4.57,0.78-7.69,1.95-9.02,2.51c-0.73,0.31-1.21,1.02-1.21,1.82c0.01,3.79,4.06,11.53,6.97,12c2.88,0.47,9.37-7.89,11.76-11.49
		c0,5.6,0.84,15.5,2.52,16.28c3.41,1.57,14.21-4.27,14.53-7.32C80.72,73.98,75.93,69.3,71.39,65.14z"/>
	<g>
		<g>
			<path style="fill:#A65F3E;" d="M100.19,19.5c-0.25-4.28-3.1-8.1-7.13-9.55c-3.27-1.17-6.54-0.76-9.17,0.72
				c-1.2,0.67-2.64,0.78-3.88,0.16c-1.92-0.96-5.25-2.26-9.99-2.86c-4.72-0.6-8.37-0.08-10.56,0.44c-1.42,0.34-2.88-0.16-3.91-1.2
				C53.57,5.24,50.84,4,47.73,4c-5.13,0-9.68,3.74-10.7,8.77c-0.64,3.13,0.11,6.17,1.79,8.53c1.46,2.07,1.75,4.78,0.81,7.14
				c-0.95,2.38-2.76,7.61-2.72,10.51c0.15,12.65,11.66,19.21,26.88,21.14s28.83-2.82,31.39-15.91c0.58-2.96,0.42-6.83-0.09-9.73
				c-0.42-2.39,0.37-4.86,2.06-6.61C99.17,25.74,100.39,22.81,100.19,19.5z"/>
			<path style="fill:#874D36;" d="M41.35,15.68c0.41-3.19,3.18-5.46,6.21-5.08c1.15,0.15,4.6,1.5,3.42,3.3
				c-0.22,0.33-0.55,0.56-0.87,0.79c-2.15,1.56-4.08,3.46-5.68,5.63c-0.29,0.4-0.73,0.85-1.16,0.66
				C41.75,20.33,41.17,17.14,41.35,15.68z"/>
			<path style="fill:#874D36;" d="M95.29,22.53c0.41-3.19-1.72-6.09-4.74-6.47c-1.15-0.15-4.83,0.3-4.13,2.34
				c0.13,0.38,0.39,0.68,0.64,0.99c1.69,2.04,3.08,4.37,4.09,6.88c0.18,0.46,0.49,1.01,0.96,0.93C93.74,26.94,95.1,24,95.29,22.53z"
				/>
			<path style="opacity:0.7;fill:#F29657;" d="M61.95,33.17c-2.95,3.39-5.17,5.31-7.26,8.3c-3.55,5.08-1.08,13.91,8.98,15.22
				c7.01,0.91,13.05-2.41,13.17-9.12c0.08-4.25-3.67-9.92-5.61-13.58C68.81,29.45,65.02,29.64,61.95,33.17z"/>
			<g>
				
					<ellipse transform="matrix(0.141 -0.99 0.99 0.141 14.346 79.5189)" style="opacity:0.55;" cx="53" cy="31.49" rx="4.78" ry="4.06"/>
				
					<ellipse transform="matrix(0.141 -0.99 0.99 0.141 34.5657 109.8343)" style="opacity:0.55;" cx="80.58" cy="35" rx="4.78" ry="4.06"/>
			</g>
			<path style="opacity:0.55;fill:none;stroke:#000000;stroke-width:2.4465;stroke-linecap:round;stroke-miterlimit:10;" d="
				M57.59,47.22c1.9,5.61,11.26,6.83,14.61,1.87"/>
			<path style="opacity:0.55;" d="M67.78,47.83c-2.41,0.53-4.86,0.11-6.47-1.91c-1.21-1.51-2.46-4.04-0.74-5.83
				c2.44-2.5,8.51-1.75,10.71,0.73C72.53,42.93,70.06,47.35,67.78,47.83z"/>
		</g>
	</g>
	<path style="opacity:0.7;fill:#F29657;" d="M16.2,106.55c0.03-1.83,1.41-4.49,3.13-5.13c4.1-1.55,8.56,0.32,11.03,5.93
		c2.04,4.64,2.24,9.51,1.37,10.82c-1.29,1.93-3.17,1.62-4.47,1.39c-2.37-0.42-4.43-1.85-6.29-3.39
		C19.08,114.6,16.12,111.42,16.2,106.55z"/>
	<path style="opacity:0.7;fill:#F29657;" d="M111.76,106.47c-0.06-1.83-1.48-4.46-3.2-5.09c-4.12-1.49-8.56,0.44-10.94,6.09
		c-1.97,4.67-1.75,8.96-1.48,9.87c0.84,2.81,3.47,2.54,4.76,2.29c2.36-0.46,4.4-1.92,6.24-3.48
		C109.01,114.57,111.91,111.35,111.76,106.47z"/>
</g>
</svg>
